brandFactory_export/1.Light/Subir a la nube_1Light.svg

<?xml version="1.0" encoding="UTF-8"?>
<svg width="24px" height="24px" viewBox="0 0 24 24" version="1.1" xmlns="http://www.w3.org/2000/svg" xmlns:xlink="http://www.w3.org/1999/xlink">
    <title>1.Light/Subir a la nube_1Light</title>
    <g id="Symbols" stroke="none" stroke-width="1" fill="none" fill-rule="evenodd">
        <g id="1.Light/Subir-a-la-nube_1Light" fill="#5CB615" fill-rule="nonzero">
            <path d="M17.4184874,18.3630252 L14.9008403,18.3731092 L14.9109244,16.4739496 L16.9142857,16.4739496 C17.2201681,16.4739496 17.4957983,16.2890756 17.6134454,15.9932773 C17.7310924,15.707563 17.6739496,15.3714286 17.4655462,15.1462185 L12.4235294,9.76134454 C12.2756303,9.60672269 12.0773109,9.52605042 11.8722689,9.52605042 C11.6638655,9.52605042 11.4789916,9.60672269 11.3310924,9.76134454 L6.17142857,15.2504202 C5.95294118,15.4756303 5.89243697,15.8117647 6.01344538,16.097479 C6.13109244,16.3932773 6.40672269,16.5882353 6.71260504,16.5882353 L8.72605042,16.5882353 L8.72605042,18.4168067 L5.07563025,18.4369748 C3.85210084,18.4369748 0.991596639,18.0268908 0.991596639,14.2252101 C0.991596639,12.087395 1.88907563,10.7394958 3.64705882,10.2285714 C3.85546218,10.1680672 4.00336134,9.96302521 4.00336134,9.73781513 L3.99327731,9.59327731 C3.99327731,3.50252101 9.12605042,3.03193277 10.6957983,3.03193277 C11.5831933,3.03193277 16.0739496,3.24705882 17.1394958,7.37478992 C17.2,7.6 17.3848739,7.7512605 17.6033613,7.7512605 C19.1226891,7.80168067 22.6453782,8.40672269 22.6453782,13.0453782 C22.6386555,17.9764706 18.6420168,18.3630252 17.4184874,18.3630252 L17.4184874,18.3630252 Z M13.912605,18.8336134 L13.902521,21.6638655 L9.70756303,21.6638655 L9.70756303,16.3495798 C9.70756303,15.912605 9.36134454,15.5630252 8.94789916,15.5630252 L7.24033613,15.5630252 L11.8689076,10.6386555 L16.3798319,15.4521008 L14.6823529,15.4521008 C14.2689076,15.4521008 13.9226891,15.8084034 13.9226891,16.2386555 L13.912605,18.8336134 L13.912605,18.8336134 Z M17.989916,6.75630252 C16.5781513,2.2487395 11.6739496,2.01344538 10.6890756,2.01344538 C9.41512605,2.01344538 3.1394958,2.3697479 3.00840336,9.35798319 C1.74453782,9.83865546 0,11.0655462 0,14.2218487 C0,18.0739496 2.62521008,19.4554622 5.07226891,19.4554622 L8.72268908,19.4352941 L8.72268908,21.8991597 C8.72268908,22.3394958 9.06890756,22.6857143 9.48235294,22.6857143 L14.1310924,22.6857143 C14.5579832,22.6857143 14.8907563,22.3394958 14.8907563,21.8991597 L14.9008403,19.394958 L17.4184874,19.3848739 C18.4537815,19.3848739 23.6268908,19.0789916 23.6268908,13.0487395 C23.6235294,7.77815126 19.687395,6.88739496 17.989916,6.75630252 Z" id="Subir-a-la-nube_1Light"></path>
        </g>
    </g>
</svg>

<svg width="24" height="24" viewBox="0 0 24 24" xmlns="http://www.w3.org/2000/svg"><path d="M17.418 18.363l-2.517.01.01-1.9h2.003a.75.75 0 00.7-.48.805.805 0 00-.148-.847l-5.042-5.385a.758.758 0 00-.552-.235.73.73 0 00-.54.235l-5.16 5.49a.782.782 0 00-.159.846.76.76 0 00.7.491h2.013v1.829l-3.65.02c-1.224 0-4.084-.41-4.084-4.212 0-2.138.897-3.486 2.655-3.996a.512.512 0 00.356-.491l-.01-.145c0-6.09 5.133-6.561 6.703-6.561.887 0 5.378.215 6.443 4.343.061.225.246.376.464.376 1.52.05 5.042.656 5.042 5.294-.006 4.931-4.003 5.318-5.227 5.318zm-3.505.47l-.01 2.83H9.708V16.35a.776.776 0 00-.76-.787H7.24l4.629-4.924 4.51 4.813h-1.697c-.413 0-.76.356-.76.787l-.01 2.595zM17.99 6.757c-1.412-4.507-6.316-4.743-7.3-4.743-1.275 0-7.55.357-7.682 7.345C1.745 9.838 0 11.066 0 14.222c0 3.852 2.625 5.233 5.072 5.233l3.65-.02V21.9c0 .44.347.787.76.787h4.65c.426 0 .759-.347.759-.787l.01-2.504 2.517-.01c1.036 0 6.209-.306 6.209-6.336-.003-5.27-3.94-6.162-5.637-6.293z" fill="#5CB615" fill-rule="nonzero"/></svg>
